; generated by PrusaSlicer 2.4.2 on 2022-07-08 at 18:44:17 UTC

; 

; external perimeters extrusion width = 0.45mm
; perimeters extrusion width = 0.45mm
; infill extrusion width = 0.45mm
; solid infill extrusion width = 0.45mm
; top infill extrusion width = 0.40mm
; support material extrusion width = 0.35mm
; first layer extrusion width = 0.42mm

M107
M190 S60 ; set bed temperature and wait for it to be reached
M104 S205 ; set temperature
;TYPE:Custom
G28 ; home all axes
G1 Z5 F5000 ; lift nozzle
M109 S205 ; set temperature and wait for it to be reached
G21 ; set units to millimeters
G90 ; use absolute coordinates
M82 ; use absolute distances for extrusion
G92 E0
; Filament gcode
M107
;LAYER_CHANGE
;Z:0.25
;HEIGHT:0.25
G1 Z.25 F7800
G1 E-2 F2400
G92 E0
G1 X125.172 Y120.851 F7800
G1 E2 F2400
;TYPE:Skirt/Brim
;WIDTH:0.42
G1 F1800
G1 X126.915 Y119.431 E2.08559
G1 X130 Y118.634 E2.20694
G1 X170 Y118.634 E3.73004
G1 X172.213 Y119.031 E3.81564
G1 X174.149 Y120.172 E3.90123
G1 X175.569 Y121.915 E3.98683
G1 X176.366 Y125 E4.10817
G1 X176.366 Y175 E6.01205
G1 X175.969 Y177.213 E6.09765
G1 X174.828 Y179.149 E6.18324
G1 X173.085 Y180.569 E6.26884
G1 X170 Y181.366 E6.39018
G1 X130 Y181.366 E7.91328
G1 X127.787 Y180.969 E7.99888
G1 X125.851 Y179.828 E8.08447
G1 X124.431 Y178.085 E8.17007
G1 X123.634 Y175 E8.29141
G1 X123.634 Y125 E10.19529
G1 X124.031 Y122.787 E10.28089
G1 X125.141 Y120.902 E10.3642
G1 E8.3642 F2400
G92 E0
G1 X133.357 Y132.857 F7800
G1 E2 F2400
;TYPE:Perimeter
G1 F1800
G1 X166.643 Y132.857 E3.26743
G1 X166.643 Y172.143 E4.76332
G1 X133.357 Y172.143 E6.03075
G1 X133.357 Y132.917 E7.52436
G1 X133.724 Y133.224 F7800
G1 F1800
G1 X166.276 Y133.224 E8.76389
G1 X166.276 Y171.776 E10.23188
G1 X133.724 Y171.776 E11.47141
G1 X133.724 Y133.284 E12.93712
G1 X134.09 Y133.59 F7800
;TYPE:External perimeter
G1 F1800
G1 X165.91 Y133.59 E14.14875
G1 X165.91 Y171.41 E15.58885
G1 X134.09 Y171.41 E16.80048
G1 X134.09 Y133.65 E18.23829
G1 X133.998 Y133.201 F7800
G1 E16.23829 F2400
G92 E0
G1 X131.143 Y126.143 F7800
G1 E2 F2400
;TYPE:Perimeter
G1 F1800
G1 X168.857 Y126.143 E3.43608
G1 X168.857 Y173.857 E5.25294
G1 X131.143 Y173.857 E6.68902
G1 X131.143 Y126.203 E8.5036
G1 X130.776 Y125.776 F7800
G1 F1800
G1 X169.224 Y125.776 E9.96758
G1 X169.224 Y174.224 E11.81233
G1 X130.776 Y174.224 E13.27632
G1 X130.776 Y125.836 E15.11879
G1 X130.41 Y125.41 F7800
;TYPE:External perimeter
G1 F1800
G1 X169.59 Y125.41 E16.61067
G1 X169.59 Y174.59 E18.48333
G1 X130.41 Y174.59 E19.97521
G1 X130.41 Y125.47 E21.84558
G1 X130.792 Y125.528 F7800
G1 E19.84558 F2400
G92 E0
G1 X168.006 Y126.253 F7800
G1 E2 F2400
;TYPE:Solid infill
;WIDTH:0.420409
G1 F1800
G1 X168.583 Y126.829 E2.03108
G1 X168.583 Y127.348 E2.05086
G1 X167.652 Y126.417 E2.10101
G1 X167.133 Y126.417 E2.12079
G1 X168.583 Y127.867 E2.19891
G1 X168.583 Y128.385 E2.21868
G1 X166.615 Y126.417 E2.32476
G1 X166.096 Y126.417 E2.34453
G1 X168.583 Y128.904 E2.47858
G1 X168.583 Y129.423 E2.49835
G1 X165.577 Y126.417 E2.66035
G1 X165.059 Y126.417 E2.68013
G1 X168.583 Y129.941 E2.87009
G1 X168.583 Y130.46 E2.88987
G1 X164.54 Y126.417 E3.1078
G1 X164.021 Y126.417 E3.12757
G1 X168.583 Y130.979 E3.37346
G1 X168.583 Y131.497 E3.39323
G1 X163.503 Y126.417 E3.66708
G1 X162.984 Y126.417 E3.68686
G1 X168.583 Y132.016 E3.98867
G1 X168.583 Y132.535 E4.00844
G1 X162.465 Y126.417 E4.33822
G1 X161.947 Y126.417 E4.35799
G1 X168.583 Y133.053 E4.71573
G1 X168.583 Y133.572 E4.7355
G1 X161.428 Y126.417 E5.1212
G1 X160.909 Y126.417 E5.14097
G1 X168.583 Y134.091 E5.55464
G1 X168.583 Y134.609 E5.57441
G1 X166.917 Y132.944 E5.66417
G1 X166.917 Y132.583 E5.67796
G1 X166.556 Y132.583 E5.69175
G1 X160.391 Y126.417 E6.02411
G1 X159.872 Y126.417 E6.04388
G1 X166.037 Y132.583 E6.37624
G1 X165.518 Y132.583 E6.39601
G1 X159.353 Y126.417 E6.72837
G1 X158.835 Y126.417 E6.74815
G1 X165 Y132.583 E7.08051
G1 X164.481 Y132.583 E7.10028
G1 X158.316 Y126.417 E7.43264
G1 X157.797 Y126.417 E7.45241
G1 X163.962 Y132.583 E7.78477
G1 X163.444 Y132.583 E7.80455
G1 X157.279 Y126.417 E8.13691
G1 X156.76 Y126.417 E8.15668
G1 X162.925 Y132.583 E8.48904
G1 X162.406 Y132.583 E8.50881
G1 X156.241 Y126.417 E8.84117
G1 X155.723 Y126.417 E8.86094
G1 X161.888 Y132.583 E9.19331
G1 X161.369 Y132.583 E9.21308
G1 X155.204 Y126.417 E9.54544
G1 X154.685 Y126.417 E9.56521
G1 X160.85 Y132.583 E9.89757
G1 X160.332 Y132.583 E9.91734
G1 X154.167 Y126.417 E10.2497
G1 X153.648 Y126.417 E10.26948
G1 X159.813 Y132.583 E10.60184
G1 X159.294 Y132.583 E10.62161
G1 X153.129 Y126.417 E10.95397
G1 X152.611 Y126.417 E10.97374
G1 X158.776 Y132.583 E11.3061
G1 X158.257 Y132.583 E11.32588
G1 X152.092 Y126.417 E11.65824
G1 X151.573 Y126.417 E11.67801
G1 X157.738 Y132.583 E12.01037
G1 X157.22 Y132.583 E12.03014
G1 X151.055 Y126.417 E12.3625
G1 X150.536 Y126.417 E12.38228
G1 X156.701 Y132.583 E12.71464
G1 X156.182 Y132.583 E12.73441
G1 X150.017 Y126.417 E13.06677
G1 X149.499 Y126.417 E13.08654
G1 X155.664 Y132.583 E13.4189
G1 X155.145 Y132.583 E13.43867
G1 X148.98 Y126.417 E13.77104
G1 X148.461 Y126.417 E13.79081
G1 X154.626 Y132.583 E14.12317
G1 X154.108 Y132.583 E14.14294
G1 X147.942 Y126.417 E14.4753
G1 X147.424 Y126.417 E14.49507
G1 X153.589 Y132.583 E14.82743
G1 X153.07 Y132.583 E14.84721
G1 X146.905 Y126.417 E15.17957
G1 X146.386 Y126.417 E15.19934
G1 X152.552 Y132.583 E15.5317
G1 X152.033 Y132.583 E15.55147
G1 X145.868 Y126.417 E15.88383
G1 X145.349 Y126.417 E15.90361
G1 X151.514 Y132.583 E16.23597
G1 X150.996 Y132.583 E16.25574
G1 X144.83 Y126.417 E16.5881
G1 X144.312 Y126.417 E16.60787
G1 X150.477 Y132.583 E16.94023
G1 X149.958 Y132.583 E16.96
G1 X143.793 Y126.417 E17.29237
G1 X143.274 Y126.417 E17.31214
G1 X149.439 Y132.583 E17.6445
G1 X148.921 Y132.583 E17.66427
G1 X142.756 Y126.417 E17.99663
G1 X142.237 Y126.417 E18.0164
G1 X148.402 Y132.583 E18.34876
G1 X147.883 Y132.583 E18.36854
G1 X141.718 Y126.417 E18.7009
G1 X141.2 Y126.417 E18.72067
G1 X147.365 Y132.583 E19.05303
G1 X146.846 Y132.583 E19.0728
G1 X140.681 Y126.417 E19.40516
G1 X140.162 Y126.417 E19.42494
G1 X146.327 Y132.583 E19.7573
G1 X145.809 Y132.583 E19.77707
G1 X139.644 Y126.417 E20.10943
G1 X139.125 Y126.417 E20.1292
G1 X145.29 Y132.583 E20.46156
G1 X144.771 Y132.583 E20.48133
G1 X138.606 Y126.417 E20.8137
G1 X138.088 Y126.417 E20.83347
G1 X144.253 Y132.583 E21.16583
G1 X143.734 Y132.583 E21.1856
G1 X137.569 Y126.417 E21.51796
G1 X137.05 Y126.417 E21.53773
G1 X143.215 Y132.583 E21.8701
G1 X142.697 Y132.583 E21.88987
G1 X136.532 Y126.417 E22.22223
G1 X136.013 Y126.417 E22.242
G1 X142.178 Y132.583 E22.57436
G1 X141.659 Y132.583 E22.59413
G1 X135.494 Y126.417 E22.92649
G1 X134.976 Y126.417 E22.94627
G1 X141.141 Y132.583 E23.27863
G1 X140.622 Y132.583 E23.2984
G1 X134.457 Y126.417 E23.63076
G1 X133.938 Y126.417 E23.65053
G1 X140.103 Y132.583 E23.98289
G1 X139.585 Y132.583 E24.00267
G1 X133.42 Y126.417 E24.33503
G1 X132.901 Y126.417 E24.3548
G1 X139.066 Y132.583 E24.68716
G1 X138.547 Y132.583 E24.70693
G1 X132.382 Y126.417 E25.03929
G1 X131.864 Y126.417 E25.05906
G1 X138.029 Y132.583 E25.39143
G1 X137.51 Y132.583 E25.4112
G1 X131.417 Y126.49 E25.73965
G1 X131.417 Y127.009 E25.75942
G1 X136.991 Y132.583 E26.0599
G1 X136.473 Y132.583 E26.07968
G1 X131.417 Y127.527 E26.3522
G1 X131.417 Y128.046 E26.37197
G1 X135.954 Y132.583 E26.61653
G1 X135.435 Y132.583 E26.63631
G1 X131.417 Y128.565 E26.85291
G1 X131.417 Y129.083 E26.87268
G1 X134.917 Y132.583 E27.06132
G1 X134.398 Y132.583 E27.08109
G1 X131.417 Y129.602 E27.24177
G1 X131.417 Y130.121 E27.26154
G1 X133.879 Y132.583 E27.39425
G1 X133.361 Y132.583 E27.41402
G1 X131.417 Y130.639 E27.51878
G1 X131.417 Y131.158 E27.53855
G1 X133.083 Y132.823 E27.62832
G1 X133.083 Y133.342 E27.64809
G1 X131.417 Y131.677 E27.73785
G1 X131.417 Y132.195 E27.75762
G1 X133.083 Y133.861 E27.84739
G1 X133.083 Y134.379 E27.86716
G1 X131.417 Y132.714 E27.95693
G1 X131.417 Y133.233 E27.9767
G1 X133.083 Y134.898 E28.06647
G1 X133.083 Y135.417 E28.08624
G1 X131.417 Y133.751 E28.176
G1 X131.417 Y134.27 E28.19578
G1 X133.083 Y135.935 E28.28554
G1 X133.083 Y136.454 E28.30531
G1 X131.417 Y134.789 E28.39508
G1 X131.417 Y135.308 E28.41485
G1 X133.083 Y136.973 E28.50462
G1 X133.083 Y137.491 E28.52439
G1 X131.417 Y135.826 E28.61415
G1 X131.417 Y136.345 E28.63393
G1 X133.083 Y138.01 E28.72369
G1 X133.083 Y138.529 E28.74346
G1 X131.417 Y136.864 E28.83323
G1 X131.417 Y137.382 E28.853
G1 X133.083 Y139.047 E28.94277
G1 X133.083 Y139.566 E28.96254
G1 X131.417 Y137.901 E29.05231
G1 X131.417 Y138.42 E29.07208
G1 X133.083 Y140.085 E29.16184
G1 X133.083 Y140.603 E29.18162
G1 X131.417 Y138.938 E29.27138
G1 X131.417 Y139.457 E29.29115
G1 X133.083 Y141.122 E29.38092
G1 X133.083 Y141.641 E29.40069
G1 X131.417 Y139.976 E29.49046
G1 X131.417 Y140.494 E29.51023
G1 X133.083 Y142.159 E29.59999
G1 X133.083 Y142.678 E29.61977
G1 X131.417 Y141.013 E29.70953
G1 X131.417 Y141.532 E29.7293
G1 X133.083 Y143.197 E29.81907
G1 X133.083 Y143.715 E29.83884
G1 X131.417 Y142.05 E29.92861
G1 X131.417 Y142.569 E29.94838
G1 X133.083 Y144.234 E30.03815
G1 X133.083 Y144.753 E30.05792
G1 X131.417 Y143.088 E30.14768
G1 X131.417 Y143.606 E30.16746
G1 X133.083 Y145.271 E30.25722
G1 X133.083 Y145.79 E30.27699
G1 X131.417 Y144.125 E30.36676
G1 X131.417 Y144.644 E30.38653
G1 X133.083 Y146.309 E30.4763
G1 X133.083 Y146.827 E30.49607
G1 X131.417 Y145.162 E30.58583
G1 X131.417 Y145.681 E30.60561
G1 X133.083 Y147.346 E30.69537
G1 X133.083 Y147.865 E30.71514
G1 X131.417 Y146.2 E30.80491
G1 X131.417 Y146.718 E30.82468
G1 X133.083 Y148.383 E30.91445
G1 X133.083 Y148.902 E30.93422
G1 X131.417 Y147.237 E31.02399
G1 X131.417 Y147.756 E31.04376
G1 X133.083 Y149.421 E31.13352
G1 X133.083 Y149.94 E31.1533
G1 X131.417 Y148.274 E31.24306
G1 X131.417 Y148.793 E31.26283
G1 X133.083 Y150.458 E31.3526
G1 X133.083 Y150.977 E31.37237
G1 X131.417 Y149.312 E31.46214
G1 X131.417 Y149.83 E31.48191
G1 X133.083 Y151.496 E31.57167
G1 X133.083 Y152.014 E31.59145
G1 X131.417 Y150.349 E31.68121
G1 X131.417 Y150.868 E31.70098
G1 X133.083 Y152.533 E31.79075
G1 X133.083 Y153.052 E31.81052
G1 X131.417 Y151.386 E31.90029
G1 X131.417 Y151.905 E31.92006
G1 X133.083 Y153.57 E32.00983
G1 X133.083 Y154.089 E32.0296
G1 X131.417 Y152.424 E32.11936
G1 X131.417 Y152.942 E32.13913
G1 X133.083 Y154.608 E32.2289
G1 X133.083 Y155.126 E32.24867
G1 X131.417 Y153.461 E32.33844
G1 X131.417 Y153.98 E32.35821
G1 X133.083 Y155.645 E32.44798
G1 X133.083 Y156.164 E32.46775
G1 X131.417 Y154.499 E32.55751
G1 X131.417 Y155.017 E32.57729
G1 X133.083 Y156.682 E32.66705
G1 X133.083 Y157.201 E32.68682
G1 X131.417 Y155.536 E32.77659
G1 X131.417 Y156.055 E32.79636
G1 X133.083 Y157.72 E32.88613
G1 X133.083 Y158.238 E32.9059
G1 X131.417 Y156.573 E32.99566
G1 X131.417 Y157.092 E33.01544
G1 X133.083 Y158.757 E33.1052
G1 X133.083 Y159.276 E33.12497
G1 X131.417 Y157.611 E33.21474
G1 X131.417 Y158.129 E33.23451
G1 X133.083 Y159.794 E33.32428
G1 X133.083 Y160.313 E33.34405
G1 X131.417 Y158.648 E33.43382
G1 X131.417 Y159.167 E33.45359
G1 X133.083 Y160.832 E33.54335
G1 X133.083 Y161.35 E33.56313
G1 X131.417 Y159.685 E33.65289
G1 X131.417 Y160.204 E33.67266
G1 X133.083 Y161.869 E33.76243
G1 X133.083 Y162.388 E33.7822
G1 X131.417 Y160.723 E33.87197
G1 X131.417 Y161.241 E33.89174
G1 X133.083 Y162.906 E33.9815
G1 X133.083 Y163.425 E34.00128
G1 X131.417 Y161.76 E34.09104
G1 X131.417 Y162.279 E34.11081
G1 X133.083 Y163.944 E34.20058
G1 X133.083 Y164.462 E34.22035
G1 X131.417 Y162.797 E34.31012
G1 X131.417 Y163.316 E34.32989
G1 X133.083 Y164.981 E34.41966
G1 X133.083 Y165.5 E34.43943
G1 X131.417 Y163.835 E34.52919
G1 X131.417 Y164.353 E34.54897
G1 X133.083 Y166.018 E34.63873
G1 X133.083 Y166.537 E34.6585
G1 X131.417 Y164.872 E34.74827
G1 X131.417 Y165.391 E34.76804
G1 X133.083 Y167.056 E34.85781
G1 X133.083 Y167.574 E34.87758
G1 X131.417 Y165.909 E34.96734
G1 X131.417 Y166.428 E34.98712
G1 X133.083 Y168.093 E35.07688
G1 X133.083 Y168.612 E35.09665
G1 X131.417 Y166.947 E35.18642
G1 X131.417 Y167.465 E35.20619
G1 X133.083 Y169.131 E35.29596
G1 X133.083 Y169.649 E35.31573
G1 X131.417 Y167.984 E35.4055
G1 X131.417 Y168.503 E35.42527
G1 X133.083 Y170.168 E35.51503
G1 X133.083 Y170.687 E35.53481
G1 X131.417 Y169.021 E35.62457
G1 X131.417 Y169.54 E35.64434
G1 X133.083 Y171.205 E35.73411
G1 X133.083 Y171.724 E35.75388
G1 X131.253 Y169.894 E35.85253
G1 E33.85253 F2400
G92 E0
G1 X168.747 Y135.293 F7800
G1 E2 F2400
G1 F1800
G1 X166.917 Y133.463 E2.09865
G1 X166.917 Y133.982 E2.11843
G1 X168.583 Y135.647 E2.20819
G1 X168.583 Y136.165 E2.22796
G1 X166.917 Y134.5 E2.31773
G1 X166.917 Y135.019 E2.3375
G1 X168.583 Y136.684 E2.42727
G1 X168.583 Y137.203 E2.44704
G1 X166.917 Y135.538 E2.5368
G1 X166.917 Y136.056 E2.55658
G1 X168.583 Y137.721 E2.64634
G1 X168.583 Y138.24 E2.66611
G1 X166.917 Y136.575 E2.75588
G1 X166.917 Y137.094 E2.77565
G1 X168.583 Y138.759 E2.86542
G1 X168.583 Y139.277 E2.88519
G1 X166.917 Y137.612 E2.97496
G1 X166.917 Y138.131 E2.99473
G1 X168.583 Y139.796 E3.08449
G1 X168.583 Y140.315 E3.10427
G1 X166.917 Y138.65 E3.19403
G1 X166.917 Y139.168 E3.2138
G1 X168.583 Y140.833 E3.30357
G1 X168.583 Y141.352 E3.32334
G1 X166.917 Y139.687 E3.41311
G1 X166.917 Y140.206 E3.43288
G1 X168.583 Y141.871 E3.52264
G1 X168.583 Y142.389 E3.54242
G1 X166.917 Y140.724 E3.63218
G1 X166.917 Y141.243 E3.65195
G1 X168.583 Y142.908 E3.74172
G1 X168.583 Y143.427 E3.76149
G1 X166.917 Y141.762 E3.85126
G1 X166.917 Y142.28 E3.87103
G1 X168.583 Y143.945 E3.9608
G1 X168.583 Y144.464 E3.98057
G1 X166.917 Y142.799 E4.07033
G1 X166.917 Y143.318 E4.09011
G1 X168.583 Y144.983 E4.17987
G1 X168.583 Y145.502 E4.19964
G1 X166.917 Y143.836 E4.28941
G1 X166.917 Y144.355 E4.30918
G1 X168.583 Y146.02 E4.39895
G1 X168.583 Y146.539 E4.41872
G1 X166.917 Y144.874 E4.50848
G1 X166.917 Y145.392 E4.52826
G1 X168.583 Y147.058 E4.61802
G1 X168.583 Y147.576 E4.63779
G1 X166.917 Y145.911 E4.72756
G1 X166.917 Y146.43 E4.74733
G1 X168.583 Y148.095 E4.8371
G1 X168.583 Y148.614 E4.85687
G1 X166.917 Y146.948 E4.94664
G1 X166.917 Y147.467 E4.96641
G1 X168.583 Y149.132 E5.05617
G1 X168.583 Y149.651 E5.07595
G1 X166.917 Y147.986 E5.16571
G1 X166.917 Y148.504 E5.18548
G1 X168.583 Y150.17 E5.27525
G1 X168.583 Y150.688 E5.29502
G1 X166.917 Y149.023 E5.38479
G1 X166.917 Y149.542 E5.40456
G1 X168.583 Y151.207 E5.49432
G1 X168.583 Y151.726 E5.5141
G1 X166.917 Y150.061 E5.60386
G1 X166.917 Y150.579 E5.62363
G1 X168.583 Y152.244 E5.7134
G1 X168.583 Y152.763 E5.73317
G1 X166.917 Y151.098 E5.82294
G1 X166.917 Y151.617 E5.84271
G1 X168.583 Y153.282 E5.93248
G1 X168.583 Y153.8 E5.95225
G1 X166.917 Y152.135 E6.04201
G1 X166.917 Y152.654 E6.06179
G1 X168.583 Y154.319 E6.15155
G1 X168.583 Y154.838 E6.17132
G1 X166.917 Y153.173 E6.26109
G1 X166.917 Y153.691 E6.28086
G1 X168.583 Y155.356 E6.37063
G1 X168.583 Y155.875 E6.3904
G1 X166.917 Y154.21 E6.48017
G1 X166.917 Y154.729 E6.49994
G1 X168.583 Y156.394 E6.5897
G1 X168.583 Y156.912 E6.60947
G1 X166.917 Y155.247 E6.69924
G1 X166.917 Y155.766 E6.71901
G1 X168.583 Y157.431 E6.80878
G1 X168.583 Y157.95 E6.82855
G1 X166.917 Y156.285 E6.91832
G1 X166.917 Y156.803 E6.93809
G1 X168.583 Y158.468 E7.02785
G1 X168.583 Y158.987 E7.04763
G1 X166.917 Y157.322 E7.13739
G1 X166.917 Y157.841 E7.15716
G1 X168.583 Y159.506 E7.24693
G1 X168.583 Y160.024 E7.2667
G1 X166.917 Y158.359 E7.35647
G1 X166.917 Y158.878 E7.37624
G1 X168.583 Y160.543 E7.466
G1 X168.583 Y161.062 E7.48578
G1 X166.917 Y159.397 E7.57554
G1 X166.917 Y159.915 E7.59531
G1 X168.583 Y161.58 E7.68508
G1 X168.583 Y162.099 E7.70485
G1 X166.917 Y160.434 E7.79462
G1 X166.917 Y160.953 E7.81439
G1 X168.583 Y162.618 E7.90416
G1 X168.583 Y163.136 E7.92393
G1 X166.917 Y161.471 E8.01369
G1 X166.917 Y161.99 E8.03347
G1 X168.583 Y163.655 E8.12323
G1 X168.583 Y164.174 E8.143
G1 X166.917 Y162.509 E8.23277
G1 X166.917 Y163.027 E8.25254
G1 X168.583 Y164.692 E8.34231
G1 X168.583 Y165.211 E8.36208
G1 X166.917 Y163.546 E8.45184
G1 X166.917 Y164.065 E8.47162
G1 X168.583 Y165.73 E8.56138
G1 X168.583 Y166.249 E8.58115
G1 X166.917 Y164.583 E8.67092
G1 X166.917 Y165.102 E8.69069
G1 X168.583 Y166.767 E8.78046
