; generated by PrusaSlicer 2.4.2 on 2022-07-07 at 18:00:57 UTC

; 

; external perimeters extrusion width = 0.45mm
; perimeters extrusion width = 0.45mm
; infill extrusion width = 0.45mm
; solid infill extrusion width = 0.45mm
; top infill extrusion width = 0.40mm
; first layer extrusion width = 0.42mm

M107
M190 S60 ; set bed temperature and wait for it to be reached
M104 S205 ; set temperature
;TYPE:Custom
G28 ; home all axes
G1 Z5 F5000 ; lift nozzle
M109 S205 ; set temperature and wait for it to be reached
G21 ; set units to millimeters
G90 ; use absolute coordinates
M82 ; use absolute distances for extrusion
G92 E0
; Filament gcode
M107
;LAYER_CHANGE
;Z:0.25
;HEIGHT:0.25
G1 Z.25 F7800
G1 E-2 F2400
G92 E0
G1 X119.713 Y111.841 F7800
G1 E2 F2400
;TYPE:Skirt/Brim
;WIDTH:0.42
G1 F1800
G1 X121.276 Y110.224 E2.08559
G1 X123.302 Y109.252 E2.17119
G1 X125 Y109.021 E2.23643
G1 X175 Y109.021 E4.14031
G1 X177.213 Y109.418 E4.2259
G1 X179.149 Y110.559 E4.3115
G1 X180.569 Y112.302 E4.39709
G1 X181.19 Y113.899 E4.46233
G1 X199.545 Y190.227 E7.45157
G1 X199.676 Y192.471 E7.53717
G1 X199.02 Y194.621 E7.62276
G1 X197.657 Y196.409 E7.70836
G1 X195.758 Y197.611 E7.79395
G1 X193.355 Y198.082 E7.88718
G1 X106.645 Y198.082 E11.18889
G1 X104.432 Y197.685 E11.27449
G1 X102.496 Y196.544 E11.36008
G1 X101.076 Y194.801 E11.44568
G1 X100.351 Y192.673 E11.53127
G1 X100.455 Y190.227 E11.6245
G1 X118.81 Y113.899 E14.61374
G1 X119.689 Y111.896 E14.69705
G1 E12.69705 F2400
G92 E0
G1 X131.527 Y126.699 F7800
G1 E2 F2400
;TYPE:Perimeter
G1 F1800
G1 X168.812 Y126.699 E3.41974
G1 X168.812 Y175.766 E5.28811
G1 X131.527 Y175.766 E6.70785
G1 X131.527 Y126.759 E8.57394
G1 X131.893 Y127.065 F7800
G1 F1800
G1 X168.446 Y127.065 E9.96578
G1 X168.446 Y175.4 E11.80626
G1 X131.893 Y175.4 E13.1981
G1 X131.893 Y127.125 E15.03629
G1 X132.259 Y127.432 F7800
;TYPE:External perimeter
G1 F1800
G1 X168.079 Y127.432 E16.40023
G1 X168.079 Y175.034 E18.21281
G1 X132.259 Y175.034 E19.57674
G1 X132.259 Y127.492 E21.38704
G1 X132.174 Y127.041 F7800
G1 E19.38704 F2400
G92 E0
G1 X125.9 Y116.53 F7800
G1 E2 F2400
;TYPE:Perimeter
G1 F1800
G1 X174.102 Y116.542 E3.83541
G1 X191.905 Y190.573 E6.73469
G1 X108.095 Y190.573 E9.92598
G1 X125.886 Y116.589 E12.82342
G1 X125.612 Y116.164 F7800
G1 F1800
G1 X174.391 Y116.176 E14.68082
G1 X192.37 Y190.939 E17.60879
G1 X107.63 Y190.939 E20.83548
G1 X125.598 Y116.222 E23.76162
G1 X125.323 Y115.798 F7800
;TYPE:External perimeter
G1 F1800
G1 X174.68 Y115.809 E25.64101
G1 X192.835 Y191.305 E28.59767
G1 X107.165 Y191.305 E31.85976
G1 X125.309 Y115.856 E34.8146
G1 X125.707 Y115.908 F7800
G1 E32.8146 F2400
G92 E0
G1 X173.269 Y116.652 F7800
G1 E2 F2400
;TYPE:Solid infill
;WIDTH:0.420784
G1 F1800
G1 X174.029 Y117.411 E2.04098
G1 X174.193 Y118.094 E2.0678
G1 X172.915 Y116.816 E2.13678
G1 X172.396 Y116.816 E2.1566
G1 X174.357 Y118.778 E2.26247
G1 X174.522 Y119.462 E2.2893
G1 X171.876 Y116.816 E2.43206
G1 X171.357 Y116.816 E2.45188
G1 X174.686 Y120.145 E2.63155
G1 X174.851 Y120.829 E2.65838
G1 X170.838 Y116.816 E2.87494
G1 X170.318 Y116.816 E2.89475
G1 X175.015 Y121.512 E3.14821
G1 X175.179 Y122.196 E3.17504
G1 X169.799 Y116.816 E3.4654
G1 X169.28 Y116.815 E3.48521
G1 X175.344 Y122.88 E3.81247
G1 X175.508 Y123.563 E3.8393
G1 X168.76 Y116.815 E4.20345
G1 X168.241 Y116.815 E4.22326
G1 X175.673 Y124.247 E4.62431
G1 X175.837 Y124.93 E4.65114
G1 X167.722 Y116.815 E5.08908
G1 X167.202 Y116.815 E5.1089
G1 X176.001 Y125.614 E5.58374
G1 X176.166 Y126.298 E5.61057
G1 X166.683 Y116.815 E6.1223
G1 X166.164 Y116.815 E6.14212
G1 X176.33 Y126.981 E6.69076
G1 X176.495 Y127.665 E6.71758
G1 X165.644 Y116.815 E7.30311
G1 X165.125 Y116.814 E7.32293
G1 X176.659 Y128.348 E7.94536
G1 X176.823 Y129.032 E7.97219
G1 X164.606 Y116.814 E8.63151
G1 X164.086 Y116.814 E8.65133
G1 X176.988 Y129.716 E9.34755
G1 X177.152 Y130.399 E9.37438
G1 X163.567 Y116.814 E10.1075
G1 X163.048 Y116.814 E10.12732
G1 X177.316 Y131.083 E10.89733
G1 X177.481 Y131.766 E10.92416
G1 X162.528 Y116.814 E11.73107
G1 X162.009 Y116.814 E11.75089
G1 X177.645 Y132.45 E12.5947
G1 X177.81 Y133.134 E12.62153
G1 X161.49 Y116.814 E13.50223
G1 X160.97 Y116.814 E13.52205
G1 X177.974 Y133.817 E14.43965
G1 X178.138 Y134.501 E14.46648
G1 X160.451 Y116.813 E15.42098
G1 X159.932 Y116.813 E15.4408
G1 X178.303 Y135.184 E16.4322
G1 X178.467 Y135.868 E16.45903
G1 X159.412 Y116.813 E17.48732
G1 X158.893 Y116.813 E17.50714
G1 X168.504 Y126.424 E18.0258
G1 X167.985 Y126.424 E18.04562
G1 X158.374 Y116.813 E18.56429
G1 X157.854 Y116.813 E18.58411
G1 X167.466 Y126.424 E19.10279
G1 X166.947 Y126.424 E19.1226
G1 X157.335 Y116.813 E19.64129
G1 X156.816 Y116.813 E19.6611
G1 X166.427 Y126.424 E20.1798
G1 X165.908 Y126.424 E20.19961
G1 X156.296 Y116.812 E20.71831
G1 X155.777 Y116.812 E20.73813
G1 X165.389 Y126.424 E21.25683
G1 X164.87 Y126.424 E21.27665
G1 X155.258 Y116.812 E21.79536
G1 X154.738 Y116.812 E21.81518
G1 X164.351 Y126.424 E22.3339
G1 X163.831 Y126.424 E22.35371
G1 X154.219 Y116.812 E22.87243
G1 X153.7 Y116.812 E22.89225
G1 X163.312 Y126.424 E23.41098
G1 X162.793 Y126.424 E23.4308
G1 X153.18 Y116.812 E23.94954
G1 X152.661 Y116.812 E23.96935
G1 X162.274 Y126.424 E24.4881
G1 X161.755 Y126.424 E24.50791
G1 X152.142 Y116.811 E25.02667
G1 X151.622 Y116.811 E25.04648
G1 X161.235 Y126.424 E25.56524
G1 X160.716 Y126.424 E25.58506
G1 X151.103 Y116.811 E26.10382
G1 X150.584 Y116.811 E26.12364
G1 X160.197 Y126.424 E26.64241
G1 X159.678 Y126.424 E26.66222
G1 X150.064 Y116.811 E27.181
G1 X149.545 Y116.811 E27.20082
G1 X159.159 Y126.424 E27.71961
G1 X158.639 Y126.424 E27.73942
G1 X149.026 Y116.811 E28.25821
G1 X148.507 Y116.811 E28.27803
G1 X158.12 Y126.424 E28.79683
G1 X157.601 Y126.424 E28.81664
G1 X147.987 Y116.81 E29.33545
G1 X147.468 Y116.81 E29.35527
G1 X157.082 Y126.424 E29.87408
G1 X156.562 Y126.424 E29.89389
G1 X146.949 Y116.81 E30.41271
G1 X146.429 Y116.81 E30.43253
G1 X156.043 Y126.424 E30.95135
G1 X155.524 Y126.424 E30.97117
G1 X145.91 Y116.81 E31.49
G1 X145.391 Y116.81 E31.50982
G1 X155.005 Y126.424 E32.02865
G1 X154.486 Y126.424 E32.04847
G1 X144.871 Y116.81 E32.56731
G1 X144.352 Y116.81 E32.58713
G1 X153.966 Y126.424 E33.10598
G1 X153.447 Y126.424 E33.12579
G1 X143.833 Y116.809 E33.64465
G1 X143.313 Y116.809 E33.66447
G1 X152.928 Y126.424 E34.18334
G1 X152.409 Y126.424 E34.20315
G1 X142.794 Y116.809 E34.72202
G1 X142.275 Y116.809 E34.74184
G1 X151.89 Y126.424 E35.26072
G1 X151.37 Y126.424 E35.28053
G1 X141.755 Y116.809 E35.79942
G1 X141.236 Y116.809 E35.81923
G1 X150.851 Y126.424 E36.33813
G1 X150.332 Y126.424 E36.35794
G1 X140.717 Y116.809 E36.87684
G1 X140.197 Y116.809 E36.89665
G1 X149.813 Y126.424 E37.41556
G1 X149.294 Y126.424 E37.43537
G1 X139.678 Y116.808 E37.95428
G1 X139.159 Y116.808 E37.9741
G1 X148.774 Y126.424 E38.49302
G1 X148.255 Y126.424 E38.51283
G1 X138.639 Y116.808 E39.03176
G1 X138.12 Y116.808 E39.05158
G1 X147.736 Y126.424 E39.57051
G1 X147.217 Y126.424 E39.59032
G1 X137.601 Y116.808 E40.10926
G1 X137.081 Y116.808 E40.12908
G1 X146.698 Y126.424 E40.64802
G1 X146.178 Y126.424 E40.66783
G1 X136.562 Y116.808 E41.18679
G1 X136.043 Y116.808 E41.2066
G1 X145.659 Y126.424 E41.72556
G1 X145.14 Y126.424 E41.74537
G1 X135.523 Y116.807 E42.26434
G1 X135.004 Y116.807 E42.28416
G1 X144.621 Y126.424 E42.80313
G1 X144.102 Y126.424 E42.82294
G1 X134.485 Y116.807 E43.34192
G1 X133.965 Y116.807 E43.36174
G1 X143.582 Y126.424 E43.88072
G1 X143.063 Y126.424 E43.90053
G1 X133.446 Y116.807 E44.41953
G1 X132.927 Y116.807 E44.43934
G1 X142.544 Y126.424 E44.95834
G1 X142.025 Y126.424 E44.97815
G1 X132.407 Y116.807 E45.49716
G1 X131.888 Y116.807 E45.51698
G1 X141.506 Y126.424 E46.03599
G1 X140.986 Y126.424 E46.0558
G1 X131.369 Y116.806 E46.57482
G1 X130.849 Y116.806 E46.59464
G1 X140.467 Y126.424 E47.11366
G1 X139.948 Y126.424 E47.13347
G1 X130.33 Y116.806 E47.6525
G1 X129.811 Y116.806 E47.67232
G1 X139.429 Y126.424 E48.19136
G1 X138.909 Y126.424 E48.21117
G1 X129.291 Y116.806 E48.73022
G1 X128.772 Y116.806 E48.75003
G1 X138.39 Y126.424 E49.26909
G1 X137.871 Y126.424 E49.2889
G1 X128.253 Y116.806 E49.80796
G1 X127.733 Y116.806 E49.82777
G1 X137.352 Y126.424 E50.34684
G1 X136.833 Y126.424 E50.36665
G1 X127.214 Y116.806 E50.88572
G1 X126.695 Y116.805 E50.90554
G1 X136.313 Y126.424 E51.42462
G1 X135.794 Y126.424 E51.44443
G1 X126.175 Y116.805 E51.96351
G1 X126.117 Y116.805 E51.96574
G1 X126.028 Y117.177 E51.98032
G1 X135.275 Y126.424 E52.47936
G1 X134.756 Y126.424 E52.49917
G1 X125.927 Y117.595 E52.97563
G1 X125.826 Y118.014 E52.99205
G1 X134.237 Y126.424 E53.44592
G1 X133.717 Y126.424 E53.46573
G1 X125.726 Y118.432 E53.89701
G1 X125.625 Y118.851 E53.91343
G1 X133.198 Y126.424 E54.32212
G1 X132.679 Y126.424 E54.34194
G1 X125.524 Y119.269 E54.72804
G1 X125.424 Y119.688 E54.74447
G1 X132.16 Y126.424 E55.10798
G1 X131.641 Y126.424 E55.12779
G1 X125.323 Y120.107 E55.46872
G1 X125.222 Y120.525 E55.48515
G1 X131.252 Y126.555 E55.81053
G1 X131.252 Y127.074 E55.83034
G1 X125.122 Y120.944 E56.16115
G1 X125.021 Y121.362 E56.17757
G1 X131.252 Y127.593 E56.51381
G1 X131.252 Y128.112 E56.53363
G1 X124.92 Y121.781 E56.8753
G1 X124.82 Y122.199 E56.89172
G1 X131.252 Y128.631 E57.23883
G1 X131.252 Y129.151 E57.25864
G1 X124.719 Y122.618 E57.61117
G1 X124.618 Y123.036 E57.6276
G1 X131.252 Y129.67 E57.98557
G1 X131.252 Y130.189 E58.00538
G1 X124.518 Y123.455 E58.36878
G1 X124.417 Y123.874 E58.38521
G1 X131.252 Y130.708 E58.75404
G1 X131.252 Y131.227 E58.77385
G1 X124.317 Y124.292 E59.14811
G1 X124.216 Y124.711 E59.16454
G1 X131.252 Y131.747 E59.54423
G1 X131.252 Y132.266 E59.56404
G1 X124.115 Y125.129 E59.94917
G1 X124.015 Y125.548 E59.9656
G1 X131.252 Y132.785 E60.35615
G1 X131.252 Y133.304 E60.37597
G1 X123.914 Y125.966 E60.77195
G1 X123.813 Y126.385 E60.78838
G1 X131.252 Y133.823 E61.1898
G1 X131.252 Y134.343 E61.20961
G1 X123.713 Y126.803 E61.61647
G1 X123.612 Y127.222 E61.63289
G1 X131.252 Y134.862 E62.04518
G1 X131.252 Y135.381 E62.06499
G1 X123.511 Y127.641 E62.4827
G1 X123.411 Y128.059 E62.49913
G1 X131.252 Y135.9 E62.92228
G1 X131.252 Y136.419 E62.94209
G1 X123.31 Y128.478 E63.37067
G1 X123.209 Y128.896 E63.3871
G1 X131.252 Y136.939 E63.82111
G1 X131.252 Y137.458 E63.84092
G1 X123.109 Y129.315 E64.28036
G1 X123.008 Y129.733 E64.29679
G1 X131.252 Y137.977 E64.74166
G1 X131.252 Y138.496 E64.76148
G1 X122.907 Y130.152 E65.21178
G1 X122.807 Y130.57 E65.22821
G1 X131.252 Y139.015 E65.68395
G1 X131.252 Y139.535 E65.70376
G1 X122.706 Y130.989 E66.16493
G1 X122.605 Y131.408 E66.18136
G1 X131.252 Y140.054 E66.64796
G1 X131.252 Y140.573 E66.66777
G1 X122.505 Y131.826 E67.1398
G1 X122.404 Y132.245 E67.15623
G1 X131.252 Y141.092 E67.63369
G1 X131.252 Y141.611 E67.65351
G1 X122.303 Y132.663 E68.1364
G1 X122.203 Y133.082 E68.15283
G1 X131.252 Y142.131 E68.64116
G1 X131.252 Y142.65 E68.66097
G1 X122.102 Y133.5 E69.15473
G1 X122.002 Y133.919 E69.17116
G1 X131.252 Y143.169 E69.67035
G1 X131.252 Y143.688 E69.69016
G1 X121.901 Y134.337 E70.19478
G1 X121.8 Y134.756 E70.21121
G1 X131.252 Y144.208 E70.72126
G1 X131.252 Y144.727 E70.74108
G1 X121.7 Y135.175 E71.25656
G1 X121.599 Y135.593 E71.27299
G1 X131.252 Y145.246 E71.79391
G1 X131.252 Y145.765 E71.81372
G1 X121.498 Y136.012 E72.34007
G1 X121.398 Y136.43 E72.3565
G1 X131.252 Y146.284 E72.88828
G1 X131.252 Y146.804 E72.90809
G1 X121.297 Y136.849 E73.4453
G1 X121.196 Y137.267 E73.46173
G1 X131.252 Y147.323 E74.00438
G1 X131.252 Y147.842 E74.02419
G1 X121.096 Y137.686 E74.57226
G1 X120.995 Y138.104 E74.58869
G1 X131.252 Y148.361 E75.1422
G1 X131.252 Y148.88 E75.16201
G1 X120.894 Y138.523 E75.72095
G1 X120.794 Y138.942 E75.73738
G1 X131.252 Y149.4 E76.30175
G1 X131.252 Y149.919 E76.32156
G1 X120.693 Y139.36 E76.89137
G1 X120.592 Y139.779 E76.90779
G1 X131.252 Y150.438 E77.48303
G1 X131.252 Y150.957 E77.50284
G1 X120.492 Y140.197 E78.08351
G1 X120.391 Y140.616 E78.09994
G1 X131.252 Y151.476 E78.68603
G1 X131.252 Y151.996 E78.70585
G1 X120.29 Y141.034 E79.29738
G1 X120.19 Y141.453 E79.3138
G1 X131.252 Y152.515 E79.91077
G1 X131.252 Y153.034 E79.93058
G1 X120.089 Y141.871 E80.53297
G1 X119.988 Y142.29 E80.5494
G1 X131.252 Y153.553 E81.15723
G1 X131.252 Y154.072 E81.17704
G1 X119.888 Y142.708 E81.7903
G1 X119.787 Y143.127 E81.80672
G1 X131.252 Y154.592 E82.42541
G1 X131.252 Y155.111 E82.44522
G1 X119.687 Y143.546 E83.06934
G1 X119.586 Y143.964 E83.08577
G1 X131.252 Y155.63 E83.71532
G1 X131.252 Y156.149 E83.73514
G1 X119.485 Y144.383 E84.37012
G1 X119.385 Y144.801 E84.38655
G1 X131.252 Y156.668 E85.02696
G1 X131.252 Y157.188 E85.04678
G1 X119.284 Y145.22 E85.69262
G1 X119.183 Y145.638 E85.70905
G1 X131.252 Y157.707 E86.36033
G1 X131.252 Y158.226 E86.38014
G1 X119.083 Y146.057 E87.03685
G1 X118.982 Y146.475 E87.05328
G1 X131.252 Y158.745 E87.71542
G1 X131.252 Y159.264 E87.73524
G1 X118.881 Y146.894 E88.40281
G1 X118.781 Y147.313 E88.41924
G1 X131.252 Y159.784 E89.09224
G1 X131.252 Y160.303 E89.11206
G1 X118.68 Y147.731 E89.79049
G1 X118.579 Y148.15 E89.80692
G1 X131.252 Y160.822 E90.49079
G1 X131.252 Y161.341 E90.5106
G1 X118.479 Y148.568 E91.1999
G1 X118.378 Y148.987 E91.21633
G1 X131.252 Y161.861 E91.91106
G1 X131.252 Y162.38 E91.93088
G1 X118.277 Y149.405 E92.63104
G1 X118.177 Y149.824 E92.64747
G1 X131.252 Y162.899 E93.35306
G1 X131.252 Y163.418 E93.37288
G1 X118.076 Y150.242 E94.0839
G1 X117.975 Y150.661 E94.10033
G1 X131.252 Y163.937 E94.81679
G1 X131.252 Y164.457 E94.8366
G1 X117.875 Y151.08 E95.5585
G1 X117.774 Y151.498 E95.57492
G1 X131.252 Y164.976 E96.30225
G1 X131.252 Y165.495 E96.32206
G1 X117.673 Y151.917 E97.05481
G1 X117.573 Y152.335 E97.07124
G1 X131.252 Y166.014 E97.80943
G1 X131.252 Y166.533 E97.82924
G1 X117.472 Y152.754 E98.57286
G1 X117.372 Y153.172 E98.58928
G1 X131.252 Y167.053 E99.33834
G1 X131.252 Y167.572 E99.35815
G1 X117.271 Y153.591 E100.11263
G1 X117.17 Y154.009 E100.12906
G1 X131.252 Y168.091 E100.88897
G1 X131.252 Y168.61 E100.90878
G1 X117.07 Y154.428 E101.67413
G1 X116.969 Y154.847 E101.69055
G1 X131.252 Y169.129 E102.46133
G1 X131.252 Y169.649 E102.48114
G1 X116.868 Y155.265 E103.25735
G1 X116.768 Y155.684 E103.27378
G1 X131.252 Y170.168 E104.05542
G1 X131.252 Y170.687 E104.07523
G1 X116.667 Y156.102 E104.8623
G1 X116.566 Y156.521 E104.87873
G1 X131.252 Y171.206 E105.67124
G1 X131.252 Y171.725 E105.69105
G1 X116.466 Y156.939 E106.48898
G1 X116.365 Y157.358 E106.50541
G1 X131.252 Y172.245 E107.30878
G1 X131.252 Y172.764 E107.32859
G1 X116.264 Y157.776 E108.13739
G1 X116.164 Y158.195 E108.15382
G1 X131.252 Y173.283 E108.96805
G1 X131.252 Y173.802 E108.98786
G1 X116.063 Y158.614 E109.80752
G1 X115.962 Y159.032 E109.82395
G1 X131.252 Y174.321 E110.64904
G1 X131.252 Y174.841 E110.66886
G1 X115.862 Y159.451 E111.49938
G1 X115.761 Y159.869 E111.51581
G1 X131.417 Y175.525 E112.36066
G1 E110.36066 F2400
G92 E0
G1 X168.922 Y126.842 F7800
G1 E2 F2400
G1 F1800
G1 X178.632 Y136.551 E2.52399
G1 X178.796 Y137.235 E2.55082
G1 X169.087 Y127.526 E3.07478
G1 X169.087 Y128.045 E3.09459
G1 X178.96 Y137.919 E3.62743
G1 X179.125 Y138.602 E3.65425
G1 X169.087 Y128.564 E4.19596
G1 X169.087 Y129.083 E4.21577
G1 X179.289 Y139.286 E4.76635
G1 X179.453 Y139.969 E4.79318
G1 X169.087 Y129.603 E5.35263
G1 X169.087 Y130.122 E5.37244
G1 X179.618 Y140.653 E5.94076
G1 X179.782 Y141.337 E5.96759
G1 X169.087 Y130.641 E6.54478
G1 X169.087 Y131.16 E6.56459
G1 X179.947 Y142.02 E7.15065
G1 X180.111 Y142.704 E7.17748
G1 X169.087 Y131.679 E7.77241
G1 X169.087 Y132.199 E7.79222
G1 X180.275 Y143.387 E8.39603
G1 X180.44 Y144.071 E8.42286
G1 X169.087 Y132.718 E9.03553
G1 X169.087 Y133.237 E9.05534
G1 X180.604 Y144.755 E9.67689
G1 X180.769 Y145.438 E9.70372
G1 X169.087 Y133.756 E10.33414
G1 X169.087 Y134.275 E10.35395
G1 X180.933 Y146.122 E10.99324
G1 X181.097 Y146.805 E11.02007
G1 X169.087 Y134.795 E11.66823
G1 X169.087 Y135.314 E11.68804
G1 X181.262 Y147.489 E12.34507
G1 X181.426 Y148.173 E12.3719
G1 X169.087 Y135.833 E13.0378
G1 X169.087 Y136.352 E13.05761
G1 X181.591 Y148.856 E13.73239
G1 X181.755 Y149.54 E13.75922
G1 X169.087 Y136.872 E14.44286
G1 X169.087 Y137.391 E14.46267
G1 X181.919 Y150.223 E15.15519
