; generated by PrusaSlicer 2.4.2 on 2022-07-08 at 14:39:31 UTC

; 

; external perimeters extrusion width = 0.45mm
; perimeters extrusion width = 0.45mm
; infill extrusion width = 0.45mm
; solid infill extrusion width = 0.45mm
; top infill extrusion width = 0.40mm
; support material extrusion width = 0.35mm
; first layer extrusion width = 0.42mm

M107
M190 S60 ; set bed temperature and wait for it to be reached
M104 S205 ; set temperature
;TYPE:Custom
G28 ; home all axes
G1 Z5 F5000 ; lift nozzle
M109 S205 ; set temperature and wait for it to be reached
G21 ; set units to millimeters
G90 ; use absolute coordinates
M82 ; use absolute distances for extrusion
G92 E0
; Filament gcode
M107
;LAYER_CHANGE
;Z:0.25
;HEIGHT:0.25
G1 Z.25 F7800
G1 E-2 F2400
G92 E0
G1 X100.656 Y105.346 F7800
G1 E2 F2400
;TYPE:Skirt/Brim
;WIDTH:0.42
G1 F1800
G1 X102.545 Y104.126 E2.08559
G1 X105 Y103.634 E2.18095
G1 X195 Y103.634 E5.60794
G1 X197.213 Y104.03 E5.69353
G1 X199.149 Y105.171 E5.77913
G1 X200.569 Y106.915 E5.86472
G1 X201.294 Y109.042 E5.95032
G1 X201.176 Y111.544 E6.04568
G1 X181.175 Y191.544 E9.18566
G1 X180.254 Y193.595 E9.27125
G1 X178.677 Y195.197 E9.35685
G1 X176.642 Y196.151 E9.44244
G1 X174.999 Y196.366 E9.50552
G1 X124.999 Y196.366 E11.4094
G1 X122.787 Y195.97 E11.495
G1 X120.85 Y194.829 E11.58059
G1 X119.43 Y193.085 E11.66619
G1 X118.823 Y191.544 E11.72927
G1 X98.824 Y111.544 E14.86923
G1 X98.672 Y109.301 E14.95483
G1 X99.309 Y107.145 E15.04042
G1 X100.62 Y105.394 E15.12373
G1 E13.12373 F2400
G92 E0
G1 X106.464 Y111.143 F7800
G1 E2 F2400
;TYPE:Perimeter
G1 F1800
G1 X193.536 Y111.143 E5.31553
G1 X174.107 Y188.857 E8.3658
G1 X125.891 Y188.857 E10.20174
G1 X106.478 Y111.201 E13.24971
G1 X105.994 Y110.776 F7800
G1 F1800
G1 X194.006 Y110.776 E16.60098
G1 X174.393 Y189.224 E19.68001
G1 X125.605 Y189.224 E21.53773
G1 X106.009 Y110.834 E24.61446
G1 X105.525 Y110.41 F7800
;TYPE:External perimeter
G1 F1800
G1 X194.475 Y110.41 E28.00146
G1 X174.679 Y189.59 E31.10925
G1 X125.319 Y189.59 E32.98875
G1 X105.54 Y110.468 E36.09424
G1 X105.909 Y110.522 F7800
G1 E34.09424 F2400
G92 E0
G1 X193.248 Y111.843 F7800
G1 E2 F2400
;TYPE:Solid infill
;WIDTH:0.421112
G1 F1800
G1 X192.823 Y111.417 E2.02298
G1 X192.303 Y111.417 E2.04282
G1 X193.008 Y112.122 E2.08091
G1 X192.904 Y112.538 E2.09728
G1 X191.783 Y111.417 E2.15782
G1 X191.264 Y111.417 E2.17767
G1 X192.8 Y112.954 E2.26067
G1 X192.696 Y113.37 E2.27704
G1 X190.744 Y111.417 E2.38249
G1 X190.224 Y111.417 E2.40234
G1 X192.592 Y113.785 E2.53025
G1 X192.489 Y114.201 E2.54661
G1 X189.705 Y111.417 E2.69698
G1 X189.185 Y111.417 E2.71682
G1 X192.385 Y114.617 E2.88964
G1 X192.281 Y115.033 E2.90601
G1 X188.665 Y111.417 E3.10128
G1 X188.146 Y111.417 E3.12113
G1 X192.177 Y115.448 E3.33886
G1 X192.073 Y115.864 E3.35523
G1 X187.626 Y111.417 E3.59541
G1 X187.106 Y111.417 E3.61526
G1 X191.969 Y116.28 E3.8779
G1 X191.865 Y116.696 E3.89427
G1 X186.587 Y111.417 E4.17936
G1 X186.067 Y111.417 E4.19921
G1 X191.761 Y117.111 E4.50676
G1 X191.657 Y117.527 E4.52313
G1 X185.547 Y111.417 E4.85313
G1 X185.028 Y111.417 E4.87298
G1 X191.553 Y117.943 E5.22544
G1 X191.449 Y118.358 E5.24181
G1 X184.508 Y111.417 E5.61672
G1 X183.988 Y111.417 E5.63657
G1 X191.345 Y118.774 E6.03394
G1 X191.241 Y119.19 E6.05031
G1 X183.469 Y111.417 E6.47013
G1 X182.949 Y111.417 E6.48998
G1 X191.137 Y119.606 E6.93226
G1 X191.033 Y120.021 E6.94863
G1 X182.429 Y111.417 E7.41336
G1 X181.91 Y111.417 E7.43321
G1 X190.929 Y120.437 E7.9204
G1 X190.826 Y120.853 E7.93677
G1 X181.39 Y111.417 E8.44641
G1 X180.87 Y111.417 E8.46626
G1 X190.722 Y121.269 E8.99836
G1 X190.618 Y121.684 E9.01473
G1 X180.351 Y111.417 E9.56928
G1 X179.831 Y111.417 E9.58913
G1 X190.514 Y122.1 E10.16614
G1 X190.41 Y122.516 E10.18251
G1 X179.311 Y111.417 E10.78198
G1 X178.792 Y111.417 E10.80182
G1 X190.306 Y122.932 E11.42375
G1 X190.202 Y123.347 E11.44011
G1 X178.272 Y111.417 E12.08449
G1 X177.752 Y111.417 E12.10434
G1 X190.098 Y123.763 E12.77117
G1 X189.994 Y124.179 E12.78754
G1 X177.233 Y111.417 E13.47682
G1 X176.713 Y111.417 E13.49667
G1 X189.89 Y124.594 E14.20841
G1 X189.786 Y125.01 E14.22478
G1 X176.193 Y111.417 E14.95898
G1 X175.674 Y111.417 E14.97882
G1 X189.682 Y125.426 E15.73548
G1 X189.578 Y125.842 E15.75184
G1 X175.154 Y111.417 E16.53095
G1 X174.634 Y111.417 E16.5508
G1 X189.474 Y126.257 E17.35236
G1 X189.37 Y126.673 E17.36873
G1 X174.115 Y111.417 E18.19274
G1 X173.595 Y111.417 E18.21259
G1 X189.267 Y127.089 E19.05906
G1 X189.163 Y127.505 E19.07543
G1 X173.075 Y111.417 E19.94436
G1 X172.556 Y111.417 E19.96421
G1 X189.059 Y127.92 E20.85559
G1 X188.955 Y128.336 E20.87196
G1 X172.036 Y111.417 E21.78579
G1 X171.516 Y111.417 E21.80564
G1 X188.851 Y128.752 E22.74194
G1 X188.747 Y129.168 E22.7583
G1 X170.997 Y111.417 E23.71705
G1 X170.477 Y111.417 E23.7369
G1 X188.643 Y129.583 E24.7181
G1 X188.539 Y129.999 E24.73447
G1 X169.957 Y111.417 E25.73813
G1 X169.438 Y111.417 E25.75797
G1 X188.435 Y130.415 E26.78409
G1 X188.331 Y130.83 E26.80045
G1 X168.918 Y111.417 E27.84902
G1 X168.398 Y111.417 E27.86887
G1 X188.227 Y131.246 E28.93989
G1 X188.123 Y131.662 E28.95626
G1 X167.879 Y111.417 E30.04974
G1 X167.359 Y111.417 E30.06959
G1 X188.019 Y132.078 E31.18552
G1 X187.915 Y132.493 E31.20189
G1 X166.839 Y111.417 E32.34028
G1 X166.32 Y111.417 E32.36013
G1 X187.811 Y132.909 E33.52097
G1 X187.707 Y133.325 E33.53734
G1 X165.8 Y111.417 E34.72064
G1 X165.28 Y111.417 E34.74048
G1 X187.604 Y133.741 E35.94624
G1 X187.5 Y134.156 E35.96261
G1 X164.761 Y111.417 E37.19081
G1 X164.241 Y111.417 E37.21066
G1 X187.396 Y134.572 E38.46133
G1 X187.292 Y134.988 E38.47769
G1 X163.721 Y111.417 E39.75081
G1 X163.202 Y111.417 E39.77066
G1 X187.188 Y135.404 E41.06624
G1 X187.084 Y135.819 E41.0826
G1 X162.682 Y111.417 E42.40063
G1 X162.162 Y111.417 E42.42048
G1 X186.98 Y136.235 E43.76097
G1 X186.876 Y136.651 E43.77733
G1 X161.643 Y111.417 E45.14027
G1 X161.123 Y111.417 E45.16012
G1 X186.772 Y137.066 E46.54552
G1 X186.668 Y137.482 E46.56188
G1 X160.603 Y111.417 E47.96973
G1 X160.084 Y111.417 E47.98958
G1 X186.564 Y137.898 E49.41989
G1 X186.46 Y138.314 E49.43625
G1 X159.564 Y111.417 E50.88901
G1 X159.044 Y111.417 E50.90886
G1 X186.356 Y138.729 E52.38408
G1 X186.252 Y139.145 E52.40044
G1 X158.525 Y111.417 E53.89812
G1 X158.005 Y111.417 E53.91796
G1 X186.148 Y139.561 E55.43809
G1 X186.044 Y139.977 E55.45446
G1 X157.485 Y111.417 E56.99704
G1 X156.966 Y111.417 E57.01689
G1 X185.941 Y140.392 E58.58192
G1 X185.837 Y140.808 E58.59829
G1 X156.446 Y111.417 E60.18578
G1 X155.926 Y111.417 E60.20563
G1 X185.733 Y141.224 E61.81557
G1 X185.629 Y141.639 E61.83194
G1 X155.407 Y111.417 E63.46434
G1 X154.887 Y111.417 E63.48419
G1 X185.525 Y142.055 E65.13905
G1 X185.421 Y142.471 E65.15541
G1 X154.367 Y111.417 E66.83273
G1 X153.848 Y111.417 E66.85257
G1 X185.317 Y142.887 E68.55234
G1 X185.213 Y143.302 E68.56871
G1 X153.328 Y111.417 E70.29093
G1 X152.808 Y111.417 E70.31078
G1 X185.109 Y143.718 E72.05545
G1 X185.005 Y144.134 E72.07182
G1 X152.289 Y111.417 E73.83895
G1 X151.769 Y111.417 E73.8588
G1 X184.901 Y144.55 E75.64839
G1 X184.797 Y144.965 E75.66476
G1 X151.249 Y111.417 E77.4768
G1 X150.73 Y111.417 E77.49665
G1 X184.693 Y145.381 E79.33114
G1 X184.589 Y145.797 E79.34751
G1 X150.21 Y111.417 E81.20446
G1 X149.69 Y111.417 E81.22431
G1 X184.485 Y146.213 E83.10372
G1 X184.381 Y146.628 E83.12009
G1 X149.17 Y111.417 E85.02195
G1 X148.651 Y111.417 E85.0418
G1 X184.278 Y147.044 E86.96611
G1 X184.174 Y147.46 E86.98248
G1 X148.131 Y111.417 E88.92925
G1 X147.611 Y111.417 E88.9491
G1 X184.07 Y147.875 E90.91833
G1 X183.966 Y148.291 E90.9347
G1 X147.092 Y111.417 E92.92638
G1 X146.572 Y111.417 E92.94623
G1 X183.862 Y148.707 E94.96037
G1 X183.758 Y149.123 E94.97673
G1 X146.052 Y111.417 E97.01333
G1 X145.533 Y111.417 E97.03318
G1 X183.654 Y149.538 E99.09223
G1 X183.55 Y149.954 E99.10859
G1 X145.013 Y111.417 E101.1901
G1 X144.493 Y111.417 E101.20994
G1 X183.446 Y150.37 E103.3139
G1 X183.342 Y150.786 E103.33027
G1 X143.974 Y111.417 E105.45668
G1 X143.454 Y111.417 E105.47653
G1 X183.238 Y151.201 E107.6254
G1 X183.134 Y151.617 E107.64177
G1 X142.934 Y111.417 E109.81309
G1 X142.415 Y111.417 E109.83294
G1 X183.03 Y152.033 E112.02672
G1 X182.926 Y152.449 E112.04309
G1 X141.895 Y111.417 E114.25932
G1 X141.375 Y111.417 E114.27917
G1 X182.822 Y152.864 E116.51786
G1 X182.718 Y153.28 E116.53423
G1 X140.856 Y111.417 E118.79537
G1 X140.336 Y111.417 E118.81522
G1 X182.615 Y153.696 E121.09882
G1 X182.511 Y154.111 E121.11519
G1 X139.816 Y111.417 E123.42124
G1 X139.297 Y111.417 E123.44109
G1 X182.407 Y154.527 E125.7696
G1 X182.303 Y154.943 E125.78597
G1 X138.777 Y111.417 E128.13693
G1 X138.257 Y111.417 E128.15678
G1 X182.199 Y155.359 E130.5302
G1 X182.095 Y155.774 E130.54657
G1 X137.738 Y111.417 E132.94244
G1 X137.218 Y111.417 E132.96229
G1 X181.991 Y156.19 E135.38062
G1 X181.887 Y156.606 E135.39699
G1 X136.698 Y111.417 E137.83777
G1 X136.179 Y111.417 E137.85762
G1 X181.783 Y157.022 E140.32086
G1 X181.679 Y157.437 E140.33723
G1 X135.659 Y111.417 E142.82292
G1 X135.139 Y111.417 E142.84277
G1 X181.575 Y157.853 E145.35092
G1 X181.471 Y158.269 E145.36729
G1 X134.62 Y111.417 E147.8979
G1 X134.1 Y111.417 E147.91774
G1 X181.367 Y158.685 E150.47081
G1 X181.263 Y159.1 E150.48717
G1 X133.58 Y111.417 E153.06269
G1 X133.061 Y111.417 E153.08254
G1 X181.159 Y159.516 E155.68051
G1 X181.055 Y159.932 E155.69687
G1 X132.541 Y111.417 E158.3173
G1 X132.021 Y111.417 E158.33715
G1 X180.952 Y160.347 E160.98003
G1 X180.848 Y160.763 E160.9964
G1 X131.502 Y111.417 E163.66174
G1 X130.982 Y111.417 E163.68158
G1 X180.744 Y161.179 E166.36937
G1 X180.64 Y161.595 E166.38574
G1 X130.462 Y111.417 E169.09599
G1 X129.943 Y111.417 E169.11584
G1 X180.536 Y162.01 E171.84854
G1 X180.432 Y162.426 E171.86491
G1 X129.423 Y111.417 E174.62006
G1 X128.903 Y111.417 E174.63991
G1 X180.328 Y162.842 E177.41752
G1 X180.224 Y163.258 E177.43389
G1 X128.384 Y111.417 E180.23396
G1 X127.864 Y111.417 E180.25381
G1 X180.12 Y163.673 E183.07633
G1 X180.016 Y164.089 E183.0927
G1 X127.344 Y111.417 E185.93767
G1 X126.825 Y111.417 E185.95752
G1 X179.912 Y164.505 E188.82495
G1 X179.808 Y164.921 E188.84132
G1 X126.305 Y111.417 E191.73121
G1 X125.785 Y111.417 E191.75106
G1 X179.704 Y165.336 E194.6634
G1 X179.6 Y165.752 E194.67977
G1 X125.266 Y111.417 E197.61457
G1 X124.746 Y111.417 E197.63441
G1 X179.496 Y166.168 E200.59167
G1 X179.392 Y166.583 E200.60803
G1 X124.226 Y111.417 E203.58774
G1 X123.707 Y111.417 E203.60759
G1 X179.289 Y166.999 E206.60975
G1 X179.185 Y167.415 E206.62612
G1 X123.187 Y111.417 E209.65074
G1 X122.667 Y111.417 E209.67059
G1 X179.081 Y167.831 E212.71766
G1 X178.977 Y168.246 E212.73403
G1 X122.148 Y111.417 E215.80356
G1 X121.628 Y111.417 E215.82341
G1 X178.873 Y168.662 E218.91539
G1 X178.769 Y169.078 E218.93176
G1 X121.108 Y111.417 E222.0462
G1 X120.589 Y111.417 E222.06604
G1 X178.665 Y169.494 E225.20294
G1 X178.561 Y169.909 E225.2193
G1 X120.069 Y111.417 E228.37865
G1 X119.549 Y111.417 E228.3985
G1 X178.457 Y170.325 E231.58031
G1 X178.353 Y170.741 E231.59667
G1 X119.03 Y111.417 E234.80093
G1 X118.51 Y111.417 E234.82078
G1 X178.249 Y171.156 E238.0475
G1 X178.145 Y171.572 E238.06386
G1 X117.99 Y111.417 E241.31303
G1 X117.471 Y111.417 E241.33288
G1 X178.041 Y171.988 E244.60451
G1 X177.937 Y172.404 E244.62087
G1 X116.951 Y111.417 E247.91495
G1 X116.431 Y111.417 E247.9348
G1 X177.833 Y172.819 E251.25134
G1 X177.729 Y173.235 E251.2677
G1 X115.912 Y111.417 E254.60669
G1 X115.392 Y111.417 E254.62654
G1 X177.626 Y173.651 E257.98799
G1 X177.522 Y174.067 E258.00435
G1 X114.872 Y111.417 E261.38825
G1 X114.353 Y111.417 E261.4081
G1 X177.418 Y174.482 E264.81446
G1 X177.314 Y174.898 E264.83082
G1 X113.833 Y111.417 E268.25964
G1 X113.313 Y111.417 E268.27948
G1 X177.21 Y175.314 E271.73075
G1 X177.106 Y175.73 E271.74712
G1 X112.794 Y111.417 E275.22084
G1 X112.274 Y111.417 E275.24069
G1 X177.002 Y176.145 E278.73686
G1 X176.898 Y176.561 E278.75323
G1 X111.754 Y111.417 E282.27186
G1 X111.235 Y111.417 E282.29171
G1 X176.794 Y176.977 E285.83279
G1 X176.69 Y177.392 E285.84916
G1 X110.715 Y111.417 E289.4127
G1 X110.195 Y111.417 E289.43255
G1 X176.586 Y177.808 E293.01855
G1 X176.482 Y178.224 E293.03491
G1 X109.676 Y111.417 E296.64337
G1 X109.156 Y111.417 E296.66321
G1 X176.378 Y178.64 E300.29412
G1 X176.274 Y179.055 E300.31049
G1 X108.636 Y111.417 E303.96385
G1 X108.117 Y111.417 E303.9837
G1 X176.17 Y179.471 E307.65951
G1 X176.066 Y179.887 E307.67588
G1 X107.597 Y111.417 E311.37415
G1 X107.077 Y111.417 E311.394
G1 X175.963 Y180.303 E315.11473
G1 X175.859 Y180.718 E315.1311
G1 X106.901 Y111.761 E318.85571
G1 X107.075 Y112.454 E318.88299
G1 X175.755 Y181.134 E322.59263
G1 X175.651 Y181.55 E322.609
G1 X107.248 Y113.147 E326.30367
G1 X107.421 Y113.84 E326.33095
G1 X175.547 Y181.966 E330.01065
G1 X175.443 Y182.381 E330.02702
G1 X107.594 Y114.533 E333.69176
G1 X107.767 Y115.226 E333.71903
G1 X175.339 Y182.797 E337.3688
G1 X175.235 Y183.213 E337.38517
G1 X107.941 Y115.918 E341.01996
G1 X108.114 Y116.611 E341.04724
G1 X175.131 Y183.628 E344.66706
G1 X175.027 Y184.044 E344.68343
G1 X108.287 Y117.304 E348.28829
G1 X108.46 Y117.997 E348.31556
G1 X174.923 Y184.46 E351.90545
G1 X174.819 Y184.876 E351.92182
G1 X108.633 Y118.69 E355.49673
G1 X108.807 Y119.383 E355.52401
G1 X174.715 Y185.291 E359.08396
G1 X174.611 Y185.707 E359.10032
G1 X108.98 Y120.076 E362.6453
G1 X109.153 Y120.769 E362.67258
G1 X174.507 Y186.123 E366.20258
G1 X174.403 Y186.539 E366.21895
G1 X109.326 Y121.461 E369.73399
G1 X109.5 Y122.154 E369.76126
G1 X174.3 Y186.954 E373.26133
G1 X174.196 Y187.37 E373.2777
G1 X109.673 Y122.847 E376.76279
G1 X109.846 Y123.54 E376.79007
G1 X174.092 Y187.786 E380.2602
G1 X173.988 Y188.202 E380.27657
G1 X110.019 Y124.233 E383.73172
G1 X110.192 Y124.926 E383.759
G1 X173.849 Y188.583 E387.19732
G1 X173.33 Y188.583 E387.21717
G1 X110.366 Y125.619 E390.61806
G1 X110.539 Y126.312 E390.64534
G1 X172.81 Y188.583 E394.00881
G1 X172.29 Y188.583 E394.02866
G1 X110.712 Y127.005 E397.3547
G1 X110.885 Y127.697 E397.38198
G1 X171.771 Y188.583 E400.6706
G1 X171.251 Y188.583 E400.69045
G1 X111.058 Y128.39 E403.94164
G1 X111.232 Y129.083 E403.96892
G1 X170.731 Y188.583 E407.18269
G1 X170.211 Y188.583 E407.20254
G1 X111.405 Y129.776 E410.37888
G1 X111.578 Y130.469 E410.40616
G1 X169.692 Y188.583 E413.54508
G1 X169.172 Y188.583 E413.56493
G1 X111.751 Y131.162 E416.66642
G1 X111.925 Y131.855 E416.6937
G1 X168.652 Y188.583 E419.75777
G1 X168.133 Y188.583 E419.77762
G1 X112.098 Y132.548 E422.80427
G1 X112.271 Y133.24 E422.83154
G1 X167.613 Y188.583 E425.82076
G1 X167.093 Y188.583 E425.84061
G1 X112.444 Y133.933 E428.79241
G1 X112.617 Y134.626 E428.81968
G1 X166.574 Y188.583 E431.73406
G1 X166.054 Y188.583 E431.7539
G1 X112.791 Y135.319 E434.63085
G1 X112.964 Y136.012 E434.65813
G1 X165.534 Y188.583 E437.49765
G1 X165.015 Y188.583 E437.5175
G1 X113.137 Y136.705 E440.31959
G1 X113.31 Y137.398 E440.34687
G1 X164.495 Y188.583 E443.11154
G1 X163.975 Y188.583 E443.13139
G1 X113.483 Y138.091 E445.85863
G1 X113.657 Y138.784 E445.88591
G1 X163.456 Y188.583 E448.57573
G1 X162.936 Y188.583 E448.59558
G1 X113.83 Y139.476 E451.24798
G1 X114.003 Y140.169 E451.27525
G1 X162.416 Y188.583 E453.89022
G1 X161.897 Y188.583 E453.91007
G1 X114.176 Y140.862 E456.48762
G1 X114.349 Y141.555 E456.5149
G1 X161.377 Y188.583 E459.05502
G1 X160.857 Y188.583 E459.07487
G1 X114.523 Y142.248 E461.57756
G1 X114.696 Y142.941 E461.60484
G1 X160.338 Y188.583 E464.07011
G1 X159.818 Y188.583 E464.08996
G1 X114.869 Y143.634 E466.51781
G1 X115.042 Y144.327 E466.54508
G1 X159.298 Y188.583 E468.93551
G1 X158.779 Y188.583 E468.95535
G1 X115.216 Y145.019 E471.30835
G1 X115.389 Y145.712 E471.33563
G1 X158.259 Y188.583 E473.6512
G1 X157.739 Y188.583 E473.67105
G1 X115.562 Y146.405 E475.94919
G1 X115.735 Y147.098 E475.97647
G1 X157.22 Y188.583 E478.21719
G1 X156.7 Y188.583 E478.23704
G1 X115.908 Y147.791 E480.44034
G1 X116.082 Y148.484 E480.46762
G1 X156.18 Y188.583 E482.63349
G1 X155.661 Y188.583 E482.65334
G1 X116.255 Y149.177 E484.78178
G1 X116.428 Y149.87 E484.80906
G1 X155.141 Y188.583 E486.90008
